X:36
T:Laural and Lindsay. LIT.036
M:4/4
Q:1/4=150
L:1/8
B:Wm. Litten MS, 1802
Z:Village Music Project 2017 Anne Wride
K:D
A de fe de fd | A2 aa gfe2 | de fe de fd | e2AA gfe2 |
de fe de fd | e2aa gf e2 | de fd ef ge | f2d2d2 :|
|:z c/d/ | ef ef ef ga | fd df ed cd | ed cA Bc de | de fg a2 gf |
ed ed ef ga | fd df ed cd | ed cA Bc de | d2d2d2 :|

